X:16
T:Duke of Gordons Reel. LIT.016
M:2/4
Q:1/4=140
L:1/8
B:Wm. Litten MS, 1802
Z:Village Music Project 2017 Anne Wride
K:G
GD GB | GD GB | dB ec | A2A2 |
GD GB GD GB | dc BA | G2G2 :|
|:ga bg | d2d2 | ga bg | e2e2 |
ga bg | ef ge | dc BA | G2G2 :|

